Hatter-kde/actions/16/insert-page-break.svg

<?xml version="1.0" encoding="UTF-8"?>
<svg viewBox="0 0 16 16" xmlns="http://www.w3.org/2000/svg">
 <defs id="defs3051">
  <style id="current-color-scheme" type="text/css">.ColorScheme-Text {
        color:#363636;
      }
      .ColorScheme-Highlight {
        color:#3daee9;
      }</style>
 </defs>
 <path class="ColorScheme-Text" d="m3 2v3h10v-3zm1 1h8v1h-8zm-1 5v6h7l3-3v-3h-9zm1 1h8v1h-3v3h-5z" fill="currentColor"/>
 <path class="ColorScheme-Highlight" d="m2 6v1h2v-1h-2zm5 0v1h2v-1h-2zm5 0v1h2v-1h-2z" fill="currentColor"/>
</svg>

<svg xmlns="http://www.w3.org/2000/svg" viewBox="0 0 16 16">
  <defs id="defs3051">
    <style type="text/css" id="current-color-scheme">
      .ColorScheme-Text {
        color:#363636;
      }
      .ColorScheme-Highlight {
        color:#3daee9;
      }
      </style>
  </defs>
  <path 
        style="fill:currentColor;fill-opacity:1;stroke:none"
        d="m 3,2 0,3 10,0 0,-3 z m 1,1 8,0 0,1 -8,0 z m -1,5 0,6 7,0 3,-3 0,-3 -9,0 z m 1,1 8,0 0,1 -3,0 0,3 -5,0 z"
        class="ColorScheme-Text"
        />
  <path 
        style="fill:currentColor;fill-opacity:1;stroke:none"
        d="M 2,6 2,7 4,7 4,6 2,6 Z M 7,6 7,7 9,7 9,6 7,6 Z m 5,0 0,1 2,0 0,-1 -2,0 z"
        class="ColorScheme-Highlight"
        />
</svg>
